X:1
T:Title
%%score { ( 1 4 ) | ( 2 3 ) }
L:1/8
Q:1/4=116
M:3/4
K:G
V:1 treble nm="Grand Piano"
V:4 treble 
V:2 bass 
V:3 bass 
V:1
 [G,CE]6 | A2 z2 z2 | B,4- [B,D]2 | C6 | z2 G2 A2 | c2 A2 [CEc]2 | B4 z2 | G6 | B2 B2 B2 | %9
w: C.~Harold~Lowden|||||||||
 c2 c2 G2 | [=Fd]4 z2 | E6 | F2 E2 F2 | G2 z2 z2 | B4 z2 | %15
w: ||||||
[M:7/8] [B,G]-[B,G]-[B,G]- [B,G]- [B,G]3 |[M:3/4] G2 z2 z2 | B6 | B,4 B2 | [EA]4 z2 | [Ec]4 c2 | %21
w: ||||||
 e2 d2 c2 | [GB]4 [FA]2 | d4 G2 | c6- | c4 z2 | [Ge]6- | [Ge]6 |] %28
w: |||||||
V:2
 z2[K:treble] G2 G2 | z2[K:treble] c2 A2 | z2 z2 =F,2 | [C,E,]6 | [C,A,C]6 | [C,G,C]4 [A,,A,]2 | %6
 [G,B,D]2 [B,D]2 [D,CD]2 | [G,B,D]6 | [=F,B,DG]6 | [E,G,C]6 | [B,,G,]6 | [C,G,C]6 | [C,A,D]6 | %13
 z2[K:treble] d2[K:bass] [C,G,]2 | [G,D]2 B,2 D,2 |[M:7/8][K:treble] z z z2 =F3 | %16
[M:3/4][K:bass] z2[K:treble] A2 c2 | G,2 A,2 D,2 | z2[K:treble] G2 B,2 | z2 A,2 C,C, | %20
 [A,,A,]4 [A,E]2 | [A,CE]2 [A,DE]2 [A,E]2 | [D,D]4 [D,C]2 | [G,B,=F]4 z2 | z2 z2[K:bass] C2 | %25
 [A,C]4 [=F,C]2 | [C,C]6- | [C,C]6 |] %28
V:3
 C,6[K:treble] | A,,6[K:treble] | G,,6 | x6 | x6 | x6 | D,4 z2 | x6 | x6 | x6 | x6 | x6 | x6 | %13
 B,,4[K:treble][K:bass] z2 | D,4 z2 |[M:7/8][K:treble] G,-G,-G,- G,- G,3 | %16
[M:3/4][K:bass] C,6[K:treble] | D,4 z2 | G,,6[K:treble] | C,4 z2 | x6 | x6 | x6 | x6 | %24
 x4[K:bass] x2 | x6 | x6 | x6 |] %28
V:4
 x6 | [A,CE]6 | [G,E]4 z2 | x6 | =F6 | E4 z2 | z2 G2 [FA]2 | x6 | x6 | G4 z2 | D4- [D=F]2 | x6 | %12
 x6 | [G,D]4 [Ec]2 | z2 G2 [CFA]2 |[M:7/8] x7 |[M:3/4] [G,E]6 | =F4 [CF]2 | =F6 | %19
 C2 z2 [G,EG][G,EG] | x6 | x6 | x6 | x6 | z2 z2 E2 | =F4 [^Gc]2 | x6 | x6 |] %28

